src/assets/subject_icons/college-counseling.svg

<svg fill="none" height="80" viewBox="0 0 80 80" width="80" xmlns="http://www.w3.org/2000/svg"><path d="m40 80c22.0914 0 40-17.9086 40-40s-17.9086-40-40-40-40 17.9086-40 40 17.9086 40 40 40z" fill="#fed766"/><path d="m40.3842 55.952c-12.2732 0-16.5848-5.5733-16.7609-5.808-.0631-.0827-.0969-.184-.0961-.288v-13.1573c0-.0635.0126-.1264.0371-.1849.0245-.0586.0603-.1118.1055-.1564.0451-.0447.0987-.0799.1576-.1037s.1219-.0357.1854-.035h33.2924c.0636-.0007.1266.0112.1855.035s.1124.059.1576.1037c.0452.0446.081.0978.1055.1564.0244.0585.037.1214.037.1849v13.1573c-.0014.1128-.0409.2218-.112.3094-.2028.2346-5.0427 5.7866-17.2946 5.7866z" fill="#2a4494"/><path d="m38.7621 48.3413c-.0721 0-.1433-.0164-.2081-.048l-24.9573-11.4026c-.0861-.0363-.1595-.0972-.2111-.1749-.0517-.0778-.0792-.1691-.0792-.2625 0-.0933.0275-.1846.0792-.2624.0516-.0778.125-.1386.2111-.1749l26.5795-10.912c.122-.0463.2568-.0463.3789 0l25.8324 10.912c.0873.0366.1618.0981.2142.1769.0524.0787.0804.1712.0804.2658s-.028.187-.0804.2658c-.0524.0787-.1269.1403-.2142.1768l-27.4333 11.4027c-.0612.0242-.1263.0368-.1921.0373z" fill="#1855d1"/><g fill="#fff"><path d="m55.2028 60.2667h-3.2444c-.0744-.0007-.1476-.0184-.214-.0517-.0664-.0334-.1243-.0816-.1691-.1408-.0449-.0593-.0755-.1281-.0896-.201-.0141-.073-.0112-.1482.0084-.2199l1.6009-5.5253c.029-.1004.0901-.1886.1739-.2512s.1857-.0961.2903-.0955c.1053-.0009.2081.0324.2928.095.0847.0625.1467.1508.1768.2517l1.6009 5.5253c.0197.0721.0225.1478.0081.2212-.0143.0733-.0454.1424-.0909.2018-.0454.0593-.104.1074-.1711.1404-.0671.0331-.1409.0501-.2157.05z"/><path d="m54.0662 54.5174h-.9658v-12.1547l-12.348-6.096.4323-.8587 12.6147 6.224c.08.0404.1473.1021.1944.1784.0471.0762.0722.164.0724.2536z"/><path d="m42.8335 35.84c0 .7893-.8645 1.4347-1.937 1.4347-1.0726 0-1.9424-.6454-1.9424-1.4347s.8698-1.44 1.9424-1.44c1.0725 0 1.937.6453 1.937 1.44z"/></g></svg>

<svg width="80" height="80" viewBox="0 0 80 80" fill="none" xmlns="http://www.w3.org/2000/svg">
<path d="M40 80C62.0914 80 80 62.0914 80 40C80 17.9086 62.0914 0 40 0C17.9086 0 0 17.9086 0 40C0 62.0914 17.9086 80 40 80Z" fill="#FED766"/>
<path d="M40.3842 55.952C28.111 55.952 23.7994 50.3787 23.6233 50.144C23.5602 50.0613 23.5264 49.96 23.5272 49.856V36.6987C23.5272 36.6352 23.5398 36.5723 23.5643 36.5138C23.5888 36.4552 23.6246 36.402 23.6698 36.3574C23.7149 36.3127 23.7685 36.2775 23.8274 36.2537C23.8863 36.2299 23.9493 36.218 24.0128 36.2187H57.3052C57.3688 36.218 57.4318 36.2299 57.4907 36.2537C57.5496 36.2775 57.6031 36.3127 57.6483 36.3574C57.6935 36.402 57.7293 36.4552 57.7538 36.5138C57.7782 36.5723 57.7908 36.6352 57.7908 36.6987V49.856C57.7894 49.9688 57.7499 50.0778 57.6788 50.1654C57.476 50.4 52.6361 55.952 40.3842 55.952Z" fill="#2A4494"/>
<path d="M38.7621 48.3413C38.69 48.3413 38.6188 48.3249 38.554 48.2933L13.5967 36.8907C13.5106 36.8544 13.4372 36.7935 13.3856 36.7158C13.3339 36.638 13.3064 36.5467 13.3064 36.4533C13.3064 36.36 13.3339 36.2687 13.3856 36.1909C13.4372 36.1131 13.5106 36.0523 13.5967 36.016L40.1762 25.104C40.2982 25.0577 40.433 25.0577 40.5551 25.104L66.3875 36.016C66.4748 36.0526 66.5493 36.1141 66.6017 36.1929C66.6541 36.2716 66.6821 36.3641 66.6821 36.4587C66.6821 36.5533 66.6541 36.6457 66.6017 36.7245C66.5493 36.8032 66.4748 36.8648 66.3875 36.9013L38.9542 48.304C38.893 48.3282 38.8279 48.3408 38.7621 48.3413Z" fill="#1855D1"/>
<path d="M55.2028 60.2667H51.9584C51.884 60.266 51.8108 60.2483 51.7444 60.215C51.678 60.1816 51.6201 60.1334 51.5753 60.0742C51.5304 60.0149 51.4998 59.9461 51.4857 59.8732C51.4716 59.8002 51.4745 59.725 51.4941 59.6533L53.095 54.128C53.124 54.0276 53.1851 53.9394 53.2689 53.8768C53.3527 53.8142 53.4546 53.7807 53.5592 53.7813C53.6645 53.7804 53.7673 53.8137 53.852 53.8763C53.9367 53.9388 53.9987 54.0271 54.0288 54.128L55.6297 59.6533C55.6494 59.7254 55.6522 59.8011 55.6378 59.8745C55.6235 59.9478 55.5924 60.0169 55.5469 60.0763C55.5015 60.1356 55.4429 60.1837 55.3758 60.2167C55.3087 60.2498 55.2349 60.2668 55.1601 60.2667H55.2028Z" fill="white"/>
<path d="M54.0662 54.5174H53.1004V42.3627L40.7524 36.2667L41.1847 35.408L53.7994 41.632C53.8794 41.6724 53.9467 41.7341 53.9938 41.8104C54.0409 41.8866 54.066 41.9744 54.0662 42.064V54.5174Z" fill="white"/>
<path d="M42.8335 35.84C42.8335 36.6293 41.969 37.2747 40.8965 37.2747C39.8239 37.2747 38.9541 36.6293 38.9541 35.84C38.9541 35.0507 39.8239 34.4 40.8965 34.4C41.969 34.4 42.8335 35.0453 42.8335 35.84Z" fill="white"/>
</svg>
